X:177 
T:Roll Her in the Haystack (reel)
F:file ID: cre.5/177roll_h
B:CRE5.139 (Tabhair Casadh Di sa Choca FÃÂÃÂÃÂÃÂ©ir)
M:4/4
Q:180
R:reel
K:D
z|d2AG FDD2|EFGF EBBc|d2AG FAd2|effe defe|
d2AF FDD/E/D|EFGF EBBc|d2AG FAd2|effe d3:|
|:e|fdad fdad|e=cgc ecce|fdad fdad|edce d3e|
fdad fdd/c/d|e=cgc ecge|defg abag|1 fgef def:|
[2 "last time"feeg agec|d8|]

%%%

